assets/img/braze_icons/credit-card-plus.svg

<svg fill="none" height="24" viewBox="0 0 24 24" width="24" xmlns="http://www.w3.org/2000/svg"><g fill="#801ed7"><path d="m20 15c0-.5523-.4477-1-1-1s-1 .4477-1 1v2h-2c-.5523 0-1 .4477-1 1s.4477 1 1 1h2v2c0 .5523.4477 1 1 1s1-.4477 1-1v-2h2c.5523 0 1-.4477 1-1s-.4477-1-1-1h-2z"/><path d="m5.16146 4h13.67704c.5272-.00001.982-.00003 1.3565.03057.3954.03231.7886.10362 1.167.29642.5645.28762 1.0234.74656 1.311 1.31104.1928.37838.2641.7716.2964 1.16695.0306.37456.0306.82932.0306 1.35646 0 .46312-.3754.83856-.8386.83856h-20.32281c-.46314 0-.83859-.37545-.83859-.83859-.000015-.5271-.000028-.98189.03057-1.35643.0323-.39535.10362-.78857.29641-1.16695.28762-.56448.74657-1.02343 1.31105-1.31105.37838-.19279.7716-.26411 1.16695-.29641.37455-.0306.82937-.03059 1.35648-.03057z"/><path d="m2.6 11c-.56005 0-.84008 0-1.05399.109-.18816.0959-.34114.2488-.43702.437-.10899.2139-.10899.4939-.10899 1.054v3.2385c-.000015.5271-.000028.982.03057 1.3565.0323.3954.10362.7886.29641 1.167.28762.5645.74657 1.0234 1.31105 1.311.37838.1928.7716.2641 1.16695.2964.37451.0306.82918.0306 1.35622.0306h6.813c.5497 0 .8245 0 .9384-.0638.1362-.0764.1623-.1062.2201-.2513.0482-.1213-.0033-.5096-.1064-1.2862-.0174-.1305-.0263-.2635-.0263-.3987 0-1.6569 1.3431-3 3-3 0-1.6569 1.3431-3 3-3s3 1.3431 3 3c.3917 0 .5876 0 .67-.0298.1713-.0619.2383-.1289.3002-.3002.0298-.0824.0298-.2278.0298-.5187v-1.5513c0-.56 0-.8401-.109-1.054-.0959-.1882-.2488-.3411-.437-.437-.2139-.109-.4939-.109-1.054-.109z"/></g></svg>

<svg width="24" height="24" viewBox="0 0 24 24" fill="none" xmlns="http://www.w3.org/2000/svg">
<path d="M20 15C20 14.4477 19.5523 14 19 14C18.4477 14 18 14.4477 18 15V17H16C15.4477 17 15 17.4477 15 18C15 18.5523 15.4477 19 16 19H18V21C18 21.5523 18.4477 22 19 22C19.5523 22 20 21.5523 20 21V19H22C22.5523 19 23 18.5523 23 18C23 17.4477 22.5523 17 22 17H20V15Z" fill="#801ED7"/>
<path d="M5.16146 4L18.8385 4C19.3657 3.99999 19.8205 3.99997 20.195 4.03057C20.5904 4.06288 20.9836 4.13419 21.362 4.32699C21.9265 4.61461 22.3854 5.07355 22.673 5.63803C22.8658 6.01641 22.9371 6.40963 22.9694 6.80498C23 7.17954 23 7.6343 23 8.16144C23 8.62456 22.6246 9 22.1614 9H1.83859C1.37545 9 1 8.62455 1 8.16141C0.999985 7.63431 0.999972 7.17952 1.03057 6.80498C1.06287 6.40963 1.13419 6.01641 1.32698 5.63803C1.6146 5.07355 2.07355 4.6146 2.63803 4.32698C3.01641 4.13419 3.40963 4.06287 3.80498 4.03057C4.17953 3.99997 4.63435 3.99998 5.16146 4Z" fill="#801ED7"/>
<path d="M2.6 11C2.03995 11 1.75992 11 1.54601 11.109C1.35785 11.2049 1.20487 11.3578 1.10899 11.546C1 11.7599 1 12.0399 1 12.6V15.8385C0.999985 16.3656 0.999972 16.8205 1.03057 17.195C1.06287 17.5904 1.13419 17.9836 1.32698 18.362C1.6146 18.9265 2.07355 19.3854 2.63803 19.673C3.01641 19.8658 3.40963 19.9371 3.80498 19.9694C4.17949 20 4.63416 20 5.1612 20L11.9742 20C12.5239 20 12.7987 20 12.9126 19.9362C13.0488 19.8598 13.0749 19.83 13.1327 19.6849C13.1809 19.5636 13.1294 19.1753 13.0263 18.3987C13.0089 18.2682 13 18.1352 13 18C13 16.3431 14.3431 15 16 15C16 13.3431 17.3431 12 19 12C20.6569 12 22 13.3431 22 15C22.3917 15 22.5876 15 22.67 14.9702C22.8413 14.9083 22.9083 14.8413 22.9702 14.67C23 14.5876 23 14.4422 23 14.1513V12.6C23 12.04 23 11.7599 22.891 11.546C22.7951 11.3578 22.6422 11.2049 22.454 11.109C22.2401 11 21.9601 11 21.4 11H2.6Z" fill="#801ED7"/>
</svg>
